packages/ffe-icons/icons/filled/md/enterprise_off.svg

<svg xmlns="http://www.w3.org/2000/svg" height="24" viewBox="0 -960 960 960" width="24"><path d="M172.309-140.001q-30.308 0-51.308-21t-21-51.308v-415.382q0-30.308 21-51.308t51.308-21h87.692v84.306L86.002-789.692q-8.307-8.308-8.5-20.884-.192-12.577 8.5-21.269 8.692-8.692 21.077-8.692 12.384 0 21.076 8.692l719.076 719.076q8.307 8.307 8.5 20.884.192 12.576-8.5 21.269-8.692 8.692-21.077 8.692-12.384 0-21.076-8.693L735.693-140H172.309Zm687.69-487.69v341.307q0 14.153-9.308 22.768Q841.384-255 829.23-255q-6.077 0-11.731-2.423-5.653-2.423-10.115-6.885L359.54-712.152q-9.462-9.462-14.5-21.654-5.039-12.192-5.039-25.884v-8q0-30.307 21-51.307 21-21 51.308-21h135.382q30.308 0 51.308 21t21 51.307v67.691h167.692q30.308 0 51.308 21t21 51.308ZM400-699.999h160v-67.691q0-4.616-3.846-8.462-3.847-3.847-8.463-3.847H412.309q-4.616 0-8.463 3.847Q400-772.306 400-767.69v67.691Z"/></svg>

<svg xmlns="http://www.w3.org/2000/svg" height="24" viewBox="0 -960 960 960" width="24"><path d="M172.31-140Q142-140 121-161q-21-21-21-51.31v-415.38Q100-658 121-679q21-21 51.31-21H260v84.31l-174-174q-8.31-8.31-8.5-20.89-.19-12.57 8.5-21.26 8.69-8.7 21.08-8.7 12.38 0 21.08 8.7l719.07 719.07q8.31 8.31 8.5 20.88.19 12.58-8.5 21.27-8.69 8.7-21.08 8.7-12.38 0-21.07-8.7L735.69-140H172.31ZM860-627.69v341.31q0 14.15-9.31 22.76-9.31 8.62-21.46 8.62-6.08 0-11.73-2.42-5.65-2.43-10.12-6.89L359.54-712.15q-9.46-9.46-14.5-21.66Q340-746 340-759.69v-8Q340-798 361-819q21-21 51.31-21h135.38Q578-840 599-819q21 21 21 51.31V-700h167.69Q818-700 839-679q21 21 21 51.31ZM400-700h160v-67.69q0-4.62-3.85-8.46-3.84-3.85-8.46-3.85H412.31q-4.62 0-8.46 3.85-3.85 3.84-3.85 8.46V-700Z"/></svg>
